libs/ui/packages/crypto-icons/src/svg/SBD.svg

<svg width="24" height="24" viewBox="0 0 24 24" fill="none">
<path d="M7.07661 6.17189C7.23861 6.19964 6.83511 7.27439 7.06011 8.50214C7.25511 9.55439 9.69036 13.6291 9.58986 15.0271C9.51186 15.9046 7.51236 17.9634 7.30161 17.8261C7.07136 17.7624 7.90911 16.3636 7.59861 15.1981C7.23711 13.8391 5.09361 10.3261 5.09586 8.77514C5.09586 7.64039 6.93186 6.09839 7.07586 6.17189H7.07661ZM11.6584 4.56689C11.8639 4.60214 11.3509 5.97389 11.6374 7.53614C11.8849 8.88014 14.9921 14.0761 14.8631 15.8574C14.7626 16.9779 12.2141 19.6006 11.9441 19.4274C11.6516 19.3471 12.7196 17.5629 12.3236 16.0764C11.8639 14.3454 9.13011 9.86489 9.13236 7.88714C9.13236 6.43889 11.4739 4.47464 11.6584 4.56764V4.56689ZM16.3871 6.17189C16.5491 6.19964 16.1464 7.27439 16.3706 8.50214C16.5656 9.55439 19.0009 13.6291 18.9011 15.0271C18.8239 15.9046 16.8236 17.9634 16.6121 17.8261C16.3826 17.7624 17.2196 16.3636 16.9091 15.1981C16.5484 13.8391 14.4041 10.3261 14.4064 8.77514C14.4064 7.64039 16.2439 6.09839 16.3871 6.17189Z" fill="#4BA2F2"/>
</svg>

<svg width="24" height="24" viewBox="0 0 24 24" fill="none"><path fill="#4ba2f2" d="M7.077 6.172c.162.028-.242 1.102-.017 2.33.195 1.052 2.63 5.127 2.53 6.525-.078.878-2.078 2.936-2.288 2.8-.23-.065.607-1.463.297-2.629-.362-1.359-2.505-4.872-2.503-6.423 0-1.135 1.836-2.677 1.98-2.603m4.581-1.605c.206.035-.307 1.407-.02 2.97.247 1.343 3.354 6.54 3.225 8.32-.1 1.12-2.649 3.744-2.919 3.57-.292-.08.776-1.864.38-3.35-.46-1.732-3.194-6.212-3.192-8.19 0-1.448 2.342-3.412 2.526-3.32m4.73 1.605c.161.028-.242 1.102-.017 2.33.195 1.052 2.63 5.127 2.53 6.525-.077.878-2.077 2.936-2.289 2.8-.23-.065.608-1.463.297-2.629-.36-1.359-2.505-4.872-2.503-6.423 0-1.135 1.838-2.677 1.981-2.603"/></svg>
